X:21
T:Tekeli. 2voices. Dix.21
M:6/8
L:1/8
Q:1/4=100
S:Anon. MS dated 1811, from Dixon collection, Holton le Moor, Lincs.
R:jig
N:Repeat sign added at start
O:England;Lincolnshire;Holton le Moor
Z:vmp.R.Greig 2010 <http://www.village-music-project.org.uk>
K:F
[V:1]|:c|f2f ede|d2f c2c|cde fga|b2ge2c|!
[V:2]|:z|F,,2F,F,2F,|F,,2F,F,2F,|B,3 A,G,F,|D2C,C2z|!
[V:1]f2f ede| d2fc2c|cde fga|bgef2:|!
[V:2]F,,2F,F,2F,|F,,2F,F,2F,|B,3A,G,F,|C2C,F,2:|!
[V:1]|:f2ga3|aba g2f|{a}g2f{a}g2f|{a}g2fg2a|!
[V:2]|:[A,2F,2]B,[C3F3]|[C3F,3]B,2A,|[B,2F,2]A,[B,2F,2]A,|[B,2C,2]A,[B,2C,2]C|!
[V:1]f2ga3|aba g2f|{a}g2f g2a|f3-!D.C.!f3:|
[V:2][A,2F,2]A,[C3F,3]|[C3F,3]B,2A,|[A,2C,2]A, A,2C|[A,3F,3][A,3F,3]:|

